assets/2023/icons/ruby.svg

<svg width="16" height="16" viewBox="0 0 16 16" fill="none" xmlns="http://www.w3.org/2000/svg">
<path fill-rule="evenodd" clip-rule="evenodd" d="M0.250723 5.82749L7.60349 15.478C7.8036 15.7406 8.19882 15.7406 8.39892 15.478L15.7517 5.82749C15.8966 5.63726 15.8866 5.37103 15.7277 5.19228L12.2996 1.33564C12.1098 1.12215 11.8378 1 11.5521 1H4.45027C4.16464 1 3.89263 1.12215 3.70287 1.33564L0.274734 5.19228C0.11585 5.37103 0.105786 5.63726 0.250723 5.82749Z" fill="#FFF7F7"/>
<path fill-rule="evenodd" clip-rule="evenodd" d="M0.250723 5.82749L7.60349 15.478C7.8036 15.7406 8.19882 15.7406 8.39892 15.478L15.7517 5.82749C15.8966 5.63726 15.8866 5.37103 15.7277 5.19228L12.2996 1.33564C12.1098 1.12215 11.8378 1 11.5521 1H4.45027C4.16464 1 3.89263 1.12215 3.70287 1.33564L0.274734 5.19228C0.11585 5.37103 0.105786 5.63726 0.250723 5.82749ZM9.2469 12.715L14.3631 6H11.3674L9.2469 12.715ZM14.2188 5L11.5521 2H9.80999L11.31 5H14.2188ZM8.69196 2H7.31L5.80999 5H10.192L8.69196 2ZM6.19196 2H4.45027L1.7836 5H4.69196L6.19196 2ZM1.63934 6L6.75472 12.7139L4.63453 6H1.63934ZM8.00098 13.3396L5.68321 6H10.3187L8.00098 13.3396Z" fill="#DB3B4B"/>
</svg>

<svg xmlns="http://www.w3.org/2000/svg" width="16" height="16" fill="none" viewBox="0 0 16 16"><path fill="#FFF7F7" fill-rule="evenodd" d="m.25 5.827 7.353 9.651a.5.5 0 0 0 .796 0l7.353-9.65a.5.5 0 0 0-.024-.636L12.3 1.336A1 1 0 0 0 11.552 1H4.45a1 1 0 0 0-.747.336L.275 5.192a.5.5 0 0 0-.024.635" clip-rule="evenodd"/><path fill="#DB3B4B" fill-rule="evenodd" d="m.25 5.827 7.353 9.651a.5.5 0 0 0 .796 0l7.353-9.65a.5.5 0 0 0-.024-.636L12.3 1.336A1 1 0 0 0 11.552 1H4.45a1 1 0 0 0-.747.336L.275 5.192a.5.5 0 0 0-.024.635m8.997 6.888L14.363 6h-2.996zM14.219 5l-2.667-3H9.81l1.5 3zM8.692 2H7.31l-1.5 3h4.382zm-2.5 0H4.45L1.784 5h2.908zM1.639 6l5.116 6.714L4.635 6zm6.362 7.34L5.683 6h4.636z" clip-rule="evenodd"/></svg>
